pix_core/i/export.svg

<svg fill="none" preserveAspectRatio="xMinYMid meet" viewBox="0 0 20 16" xmlns="http://www.w3.org/2000/svg"><path clip-rule="evenodd" d="m10 0c.2652 0 .5196.105357.7071.292894l2.5 2.500006c.3905.39052.3905 1.02369 0 1.41421s-1.0237.39052-1.4142 0l-.7929-.79289v6.58578c0 .5523-.4477 1-1 1-.55229 0-1-.4477-1-1v-6.58578l-.79289.79289c-.39052.39052-1.02369.39052-1.41421 0-.39053-.39052-.39053-1.02369 0-1.41421l2.49999-2.500006c.18754-.187537.44189-.292894.70711-.292894zm-7 6c-.45579 0-1 .4455-1 1.22222v5.55558c0 .7767.54421 1.2222 1 1.2222h14c.4558 0 1-.4455 1-1.2222v-5.55558c0-.77672-.5442-1.22222-1-1.22222-.5523 0-1-.44772-1-1s.4477-1 1-1c1.7534 0 3 1.54435 3 3.22222v5.55558c0 1.6779-1.2466 3.2222-3 3.2222h-14c-1.75335 0-3-1.5443-3-3.2222v-5.55558c0-1.67787 1.24665-3.22222 3-3.22222.55228 0 1 .44772 1 1s-.44772 1-1 1z" fill="#fff" fill-rule="evenodd"/></svg>

<svg viewBox="0 0 20 16" fill="none" xmlns="http://www.w3.org/2000/svg" preserveAspectRatio="xMinYMid meet">
<path fill-rule="evenodd" clip-rule="evenodd" d="M10 0C10.2652 0 10.5196 0.105357 10.7071 0.292894L13.2071 2.7929C13.5976 3.18342 13.5976 3.81659 13.2071 4.20711C12.8166 4.59763 12.1834 4.59763 11.7929 4.20711L11 3.41422V10C11 10.5523 10.5523 11 10 11C9.44771 11 9 10.5523 9 10V3.41422L8.20711 4.20711C7.81659 4.59763 7.18342 4.59763 6.7929 4.20711C6.40237 3.81659 6.40237 3.18342 6.7929 2.7929L9.29289 0.292894C9.48043 0.105357 9.73478 0 10 0ZM3 6C2.54421 6 2 6.4455 2 7.22222V12.7778C2 13.5545 2.54421 14 3 14H17C17.4558 14 18 13.5545 18 12.7778V7.22222C18 6.4455 17.4558 6 17 6C16.4477 6 16 5.55228 16 5C16 4.44772 16.4477 4 17 4C18.7534 4 20 5.54435 20 7.22222V12.7778C20 14.4557 18.7534 16 17 16H3C1.24665 16 0 14.4557 0 12.7778V7.22222C0 5.54435 1.24665 4 3 4C3.55228 4 4 4.44772 4 5C4 5.55228 3.55228 6 3 6Z" fill="#fff"/>
</svg>
